src/assets/metronic/worbby/global/img/icon-2.svg

<svg xmlns="http://www.w3.org/2000/svg" width="80" height="80"><g fill="none" fill-rule="evenodd"><circle cx="26.5" cy="26.5" r="26.5" fill="#FFCB33"/><path fill="#1E2225" d="M32.476 51h15.768c1.404 0 2.16-.756 2.16-2.16v-1.584c0-1.404-.756-2.16-2.16-2.16h-2.556c-.144 0-3.204.072-4.824.252l-.036-.144 3.672-2.88c2.448-2.016 4.788-5.04 4.788-8.496 0-5.184-4.068-8.424-9.72-8.424-5.976 0-8.928 2.952-9.756 6.516-.324 1.404.576 2.232 2.016 2.232h2.808c1.26 0 1.62-.684 2.34-1.8.468-.684 1.26-1.044 2.412-1.044 1.512 0 2.808.828 2.808 2.268 0 1.872-1.296 3.24-3.204 4.932l-7.884 7.056c-.864.792-1.188 1.62-1.044 2.772l.108.684c.18 1.296.972 1.98 2.304 1.98z"/><path fill="#1E2225" d="M40 0C17.952 0 0 17.936 0 40s17.952 40 40 40 40-17.952 40-40S62.064 0 40 0zm0 74.352C21.056 74.352 5.648 58.944 5.648 40 5.648 21.056 21.056 5.648 40 5.648c18.944 0 34.336 15.408 34.336 34.352C74.352 58.944 58.944 74.352 40 74.352z"/></g></svg>

<?xml version="1.0" encoding="UTF-8"?>
<svg width="80px" height="80px" viewBox="0 0 80 80" version="1.1" xmlns="http://www.w3.org/2000/svg" xmlns:xlink="http://www.w3.org/1999/xlink">
    <!-- Generator: Sketch 41.2 (35397) - http://www.bohemiancoding.com/sketch -->
    <title>icon-2</title>
    <desc>Created with Sketch.</desc>
    <defs></defs>
    <g id="Desktop" stroke="none" stroke-width="1" fill="none" fill-rule="evenodd">
        <g id="Desktop-Home-Worbbior" transform="translate(-520.000000, -2911.000000)">
            <g id="icon-2" transform="translate(520.000000, 2911.000000)">
                <circle id="Oval-Copy" fill="#FFCB33" cx="26.5" cy="26.5" r="26.5"></circle>
                <path d="M32.476,51 L48.244,51 C49.648,51 50.404,50.244 50.404,48.84 L50.404,47.256 C50.404,45.852 49.648,45.096 48.244,45.096 L45.688,45.096 C45.544,45.096 42.484,45.168 40.864,45.348 L40.828,45.204 L44.5,42.324 C46.948,40.308 49.288,37.284 49.288,33.828 C49.288,28.644 45.22,25.404 39.568,25.404 C33.592,25.404 30.64,28.356 29.812,31.92 C29.488,33.324 30.388,34.152 31.828,34.152 L34.636,34.152 C35.896,34.152 36.256,33.468 36.976,32.352 C37.444,31.668 38.236,31.308 39.388,31.308 C40.9,31.308 42.196,32.136 42.196,33.576 C42.196,35.448 40.9,36.816 38.992,38.508 L31.108,45.564 C30.244,46.356 29.92,47.184 30.064,48.336 L30.172,49.02 C30.352,50.316 31.144,51 32.476,51 Z" id="2" fill="#1E2225"></path>
                <path d="M40,0 C17.952,0 0,17.936 0,40 C0,62.064 17.952,80 40,80 C62.048,80 80,62.048 80,40 C80,17.952 62.064,0 40,0 Z M40,74.352 C21.056,74.352 5.648,58.944 5.648,40 C5.648,21.056 21.056,5.648 40,5.648 C58.944,5.648 74.336,21.056 74.336,40 C74.352,58.944 58.944,74.352 40,74.352 Z" id="Combined-Shape-Copy" fill="#1E2225"></path>
            </g>
        </g>
    </g>
</svg>
